X:150
T:Auld Rob the Laird. RH.150
R:Air
S:Rev.R.Harrison’s MS,c1815,Cumbria
O:England
A:Temple Sowerby,Cumbria
Z:vmp.Simon Wilson. Review PJH, 2008.
M:C
L:1/8
Q:1/2=60
K:G
B/c/|e>edB d>BG>B|Aaab c’>bag|\
dedB dBGB|Aeed eAA:|!
|:B/c/|dgga bagf|eaab c’bag|\
bagf dgec|dBAB G3:|

